symbols/web/brightness_5/materialsymbolssharp/brightness_5_wght500_24px.svg

<svg xmlns="http://www.w3.org/2000/svg" height="24" width="24"><path d="m12 23.4-3.375-3.325h-4.7v-4.7L.6 12l3.325-3.375v-4.7h4.7L12 .6l3.375 3.325h4.7v4.7L23.4 12l-3.325 3.375v4.7h-4.7Zm0-5.6q2.425 0 4.113-1.687Q17.8 14.425 17.8 12q0-2.425-1.687-4.113Q14.425 6.2 12 6.2q-2.425 0-4.112 1.687Q6.2 9.575 6.2 12q0 2.425 1.7 4.113Q9.6 17.8 12 17.8Zm0-2.1q-1.525 0-2.612-1.088Q8.3 13.525 8.3 12q0-1.525 1.088-2.613Q10.475 8.3 12 8.3q1.525 0 2.613 1.087Q15.7 10.475 15.7 12t-1.087 2.612Q13.525 15.7 12 15.7Zm0 4.5 2.425-2.4H17.8v-3.375L20.225 12 17.8 9.575V6.2h-3.375L12 3.775 9.575 6.2H6.2v3.375L3.8 12l2.4 2.425V17.8h3.375Zm0-8.2Z"/></svg>

<svg xmlns="http://www.w3.org/2000/svg" height="24" width="24"><path d="M12 23.4 8.625 20.075H3.925V15.375L0.6 12L3.925 8.625V3.925H8.625L12 0.6L15.375 3.925H20.075V8.625L23.4 12L20.075 15.375V20.075H15.375ZM12 16.85Q9.975 16.85 8.562 15.438Q7.15 14.025 7.15 12Q7.15 9.975 8.562 8.562Q9.975 7.15 12 7.15Q14.025 7.15 15.438 8.562Q16.85 9.975 16.85 12Q16.85 14.025 15.438 15.438Q14.025 16.85 12 16.85ZM12 14.725Q13.125 14.725 13.925 13.925Q14.725 13.125 14.725 12Q14.725 10.875 13.925 10.075Q13.125 9.275 12 9.275Q10.875 9.275 10.075 10.075Q9.275 10.875 9.275 12Q9.275 13.125 10.075 13.925Q10.875 14.725 12 14.725ZM12 20.2 14.425 17.8H17.8V14.425L20.225 12L17.8 9.575V6.2H14.425L12 3.775L9.575 6.2H6.2V9.575L3.8 12L6.2 14.425V17.8H9.575ZM12 12Q12 12 12 12Q12 12 12 12Q12 12 12 12Q12 12 12 12Q12 12 12 12Q12 12 12 12Q12 12 12 12Q12 12 12 12Z"/></svg>
